X: 40942
T: Trip To Cáceres
R: jig
M: 6/8
K: Bminor
|:FGF FED|B,DF Bcd|~c3ABc|ecA ABc|
dBf cAe|BGd AFD|GED CDE|1 DB,B,B,2G:|2 DB,B,B,2D||
|:DFB dcB|cec ^ABc|Bdf bfd|e^de c=de|
dfB ce^A|BdF GBE|FED CDE|1 DB,B, B,2 D:|2 DB,B, B,2c||
|:dcd a2f|ecA ABc|F^Ac efg|
[1fdB B2c|dcd agf|edc AGF|EFG FEF|DB,B,B,2 c:|
[2fdB Bfg|afd ecA|dBG cAF|EFG FEF|DB,B, B,2 ^G||
|:AGE CDE|F2E FDA,|GED CDE|FED B,DF|
[1AGE CDE|F2E DFA|F^Ac edc|dBB B2 ^G:|
[2ABc B2 {/cB}A|GAB AGF|EFG FEF|DB,B, B,3||

